public/icons/blue-check.svg

<svg width="56" height="56" viewBox="0 0 56 56" fill="none" xmlns="http://www.w3.org/2000/svg">
<rect width="56" height="56" rx="28" fill="#1574E5"/>
<path fill-rule="evenodd" clip-rule="evenodd" d="M29.8057 18.7477C28.7985 17.7732 27.1999 17.7732 26.1927 18.7477C25.6167 19.3049 24.8158 19.5651 24.0223 19.4529C22.6347 19.2566 21.3414 20.1962 21.0993 21.5765C20.9608 22.3659 20.4658 23.0472 19.7579 23.4228C18.5199 24.0796 18.0259 25.5999 18.6414 26.859C18.9934 27.579 18.9934 28.4211 18.6414 29.1411C18.0259 30.4001 18.5199 31.9204 19.7579 32.5773C20.4658 32.9529 20.9608 33.6342 21.0993 34.4235C21.3414 35.8039 22.6347 36.7435 24.0223 36.5472C24.8158 36.435 25.6167 36.6952 26.1927 37.2524C27.1999 38.2268 28.7985 38.2268 29.8057 37.2524C30.3817 36.6952 31.1826 36.435 31.9761 36.5472C33.3637 36.7435 34.657 35.8039 34.8991 34.4235C35.0376 33.6342 35.5325 32.9529 36.2405 32.5773C37.4785 31.9204 37.9724 30.4001 37.357 29.1411C37.005 28.4211 37.005 27.579 37.357 26.859C37.9724 25.5999 37.4785 24.0796 36.2405 23.4228C35.5325 23.0472 35.0376 22.3659 34.8991 21.5765C34.657 20.1962 33.3637 19.2566 31.9761 19.4529C31.1826 19.5651 30.3817 19.3049 29.8057 18.7477ZM32.7168 25.6965C33.1014 25.3002 33.092 24.6671 32.6957 24.2824C32.2993 23.8978 31.6662 23.9073 31.2816 24.3036L26.1759 29.5642L24.7168 28.0608C24.3321 27.6645 23.699 27.655 23.3027 28.0397C22.9064 28.4243 22.8969 29.0574 23.2816 29.4537L25.4583 31.6965C25.6466 31.8905 25.9055 32 26.1759 32C26.4463 32 26.7052 31.8905 26.8935 31.6965L32.7168 25.6965Z" fill="#F9FAFB"/>
</svg>

<svg xmlns="http://www.w3.org/2000/svg" width="56" height="56" fill="none"><rect width="56" height="56" fill="#1574E5" rx="28"/><path fill="#F9FAFB" fill-rule="evenodd" d="M29.806 18.748a2.6 2.6 0 0 0-3.613 0 2.6 2.6 0 0 1-2.17.705 2.6 2.6 0 0 0-2.924 2.124 2.6 2.6 0 0 1-1.341 1.846 2.6 2.6 0 0 0-1.117 3.436c.352.72.352 1.562 0 2.282a2.6 2.6 0 0 0 1.117 3.436 2.6 2.6 0 0 1 1.341 1.846 2.6 2.6 0 0 0 2.923 2.124 2.6 2.6 0 0 1 2.17.705 2.6 2.6 0 0 0 3.614 0 2.6 2.6 0 0 1 2.17-.705 2.6 2.6 0 0 0 2.923-2.123c.139-.79.633-1.471 1.341-1.847a2.6 2.6 0 0 0 1.117-3.436 2.6 2.6 0 0 1 0-2.282 2.6 2.6 0 0 0-1.117-3.436 2.6 2.6 0 0 1-1.34-1.846 2.6 2.6 0 0 0-2.924-2.124 2.6 2.6 0 0 1-2.17-.705m2.91 6.948a1 1 0 0 0-1.434-1.392l-5.106 5.26-1.46-1.503a1 1 0 0 0-1.434 1.393l2.176 2.242a1 1 0 0 0 1.436 0z" clip-rule="evenodd"/></svg>
